X:1
T:Det er foraar alting klippes ned
T:Det er forår alting klippes ned
T:Hilsen til forårssolen
C:Hilsen til forårssolen
Z:All Rights Reserved
L:1/8
M:4/4
K:F
V:1 treble nm=" " snm=" "
V:1
 z z z2 z z A,B, |"F" C2 C2"Bb" DD"C"EE |"F" F6"F7" FF |"Bb" BBBB"C" AAGG |"F" GF F2 z4 | %5
 z4 z2 A,B, |"F" C-CCC"Bb" B-B A2 |"C" G6 GG |"G7" GGGG GAGF |"C" EC- C2 z2 CC | %10
"F" A2 A2"A7" AAAG |"Dm" FFFE"Bb" D2 DD |"F" CCAC"C7" B,G- G2 |[M:2/4]"Bb" z2 FG |[M:4/4]"F" F8 |] %15

